X: 2004
T: The CAIRDING O'T
Q: "Reel."
R: Reel.
%R: reel
B: James Kerr "Merry Melodies" v.2 p.3 #4
Z: 2016 John Chambers <jc:trillian.mit.edu>
M: C
L: 1/8
K: A
uE2 |\
vA2(AB) cBcd | e2(af) ecAc |\
dcdf ecBA | GABc B3uc |\
vdcde fgaf | ecBA AGFE |\
A2(AB) ceBd | c2A2A2 |]
(uaf) |\
vecAc e2(af) | ecAc e2c2 |\
dcde fgaf | g2e2 e2(dc) |\
dcde fgaf | ecBA AGFE |\
A2(AB) ceBd | c2A2A2 |]

%%sep 1 1 500
%%sep 1 1 500

